X: 5
T: Aileen's Reel
C: Neil Barron 2002
T: Dance: Dancing On
N: In memory of Hilda Hughes - a good companion and a happy dancer.
B: Social Dances 2002
R: reel
Z: 2014 John Chambers <jc:trillian.mit.edu>
M: C|
L: 1/8
K: A
E |\
"A"A2AG ABcd | "A"e2e2 "A7"cAA2 | "D"FAA2 "A/C#"EAA2 | "B7"B2B2 "E7"GEE2 |
"A"A2AG ABcd | "A"e2e2 "A7"cAA2 | "D"FAA2 "A"EAA2 cAGF | "E7"E2e2 "A"cAA :|
|: G |\
"D"F2A2 FDDF | "A/C#"Eee2 "A"cAAF | "E7"EGG2 GBB2 | "A"EAA2 ceeG |
"D"FAA2 FDDF | "A/C#"Eee2 "A"cAAG | "D"FAA2 "A"cAGF | "E7"E2e2 "A"cAA :|

%%sep 1 1 500
%%sep 1 1 500
